;FLAVOR:Marlin
;TIME:2141
;Filament used: 1.22004m
;Layer height: 0.2
;MINX:46.5
;MINY:79.482
;MINZ:0.2
;MAXX:188.5
;MAXY:155.518
;MAXZ:3.2
;Generated with Cura_SteamEngine 4.7.1
M140 S50
M105
M190 S50
M104 S200
M105
M109 S200
M82 ;absolute extrusion mode
; Ender 3 Custom Start G-code
G92 E0 ; Reset Extruder
G28 ; Home all axes
G1 Z2.0 F3000 ; Move Z Axis up little to prevent scratching of Heat Bed
G1 X0.1 Y20 Z0.3 F5000.0 ; Move to start position
G1 X0.1 Y200.0 Z0.3 F1500.0 E15 ; Draw the first line
G1 X0.4 Y200.0 Z0.3 F5000.0 ; Move to side a little
G1 X0.4 Y20 Z0.3 F1500.0 E30 ; Draw the second line
G92 E0 ; Reset Extruder
G1 Z2.0 F3000 ; Move Z Axis up little to prevent scratching of Heat Bed
G1 X5 Y20 Z0.3 F5000.0 ; Move over to prevent blob squish
G92 E0
G92 E0
G1 F2700 E-5
;LAYER_COUNT:16
;LAYER:0
M107
G0 F6000 X51.912 Y81.021 Z0.2
;TYPE:SKIRT
G1 F2700 E0
G1 F1200 X52.739 Y80.579 E0.03119
G1 X53.601 Y80.209 E0.06239
G1 X54.491 Y79.913 E0.09358
G1 X55.403 Y79.695 E0.12477
G1 X56.33 Y79.554 E0.15596
G1 X57.201 Y79.495 E0.18499
G1 X57.522 Y79.486 E0.19567
G1 X57.83 Y79.482 E0.20592
G1 X176.793 Y79.482 E4.16265
G1 X176.951 Y79.483 E4.1679
G1 X177.649 Y79.493 E4.19112
G1 X178.585 Y79.547 E4.2223
G1 X179.513 Y79.679 E4.25348
G1 X180.427 Y79.891 E4.28468
G1 X181.319 Y80.18 E4.31587
G1 X182.184 Y80.543 E4.34707
G1 X183.014 Y80.979 E4.37825
G1 X183.805 Y81.484 E4.40947
G1 X184.549 Y82.055 E4.44066
G1 X185.242 Y82.687 E4.47186
G1 X185.879 Y83.375 E4.50304
G1 X186.454 Y84.116 E4.53424
G1 X186.965 Y84.902 E4.56542
G1 X187.407 Y85.73 E4.59664
G1 X187.776 Y86.592 E4.62782
G1 X188.071 Y87.482 E4.65901
G1 X188.289 Y88.394 E4.6902
G1 X188.429 Y89.322 E4.72141
G1 X188.487 Y90.183 E4.75011
G1 X188.496 Y90.503 E4.76076
G1 X188.5 Y90.812 E4.77104
G1 X188.499 Y143.918 E6.53735
G1 X188.49 Y144.645 E6.56153
G1 X188.439 Y145.582 E6.59274
G1 X188.307 Y146.51 E6.62392
G1 X188.098 Y147.424 E6.6551
G1 X187.811 Y148.317 E6.6863
G1 X187.449 Y149.183 E6.71752
G1 X187.015 Y150.014 E6.7487
G1 X186.511 Y150.805 E6.7799
G1 X185.942 Y151.55 E6.81108
G1 X185.311 Y152.245 E6.8423
G1 X184.624 Y152.883 E6.87348
G1 X183.885 Y153.46 E6.90467
G1 X183.099 Y153.972 E6.93586
G1 X182.273 Y154.415 E6.96704
G1 X181.411 Y154.787 E6.99827
G1 X180.522 Y155.083 E7.02943
G1 X179.61 Y155.303 E7.06063
G1 X178.683 Y155.444 E7.09182
G1 X177.799 Y155.505 E7.12129
G1 X177.478 Y155.514 E7.13197
G1 X177.17 Y155.518 E7.14222
G1 X58.207 Y155.518 E11.09894
G1 X57.367 Y155.508 E11.12688
G1 X56.431 Y155.456 E11.15806
G1 X55.502 Y155.324 E11.18927
G1 X54.588 Y155.114 E11.22046
G1 X53.695 Y154.827 E11.25166
G1 X52.83 Y154.464 E11.28286
G1 X51.999 Y154.03 E11.31404
G1 X51.208 Y153.526 E11.34524
G1 X50.463 Y152.956 E11.37644
G1 X49.769 Y152.325 E11.40764
G1 X49.132 Y151.638 E11.4388
G1 X48.555 Y150.898 E11.47001
G1 X48.043 Y150.112 E11.50121
G1 X47.6 Y149.285 E11.53241
G1 X47.229 Y148.424 E11.56359
G1 X46.933 Y147.534 E11.59479
G1 X46.714 Y146.622 E11.62598
G1 X46.573 Y145.695 E11.65717
G1 X46.513 Y144.806 E11.68681
G1 X46.504 Y144.473 E11.69789
G1 X46.5 Y144.176 E11.70776
G1 X46.501 Y91.007 E13.47617
G1 X46.51 Y90.342 E13.49829
G1 X46.563 Y89.406 E13.52947
G1 X46.695 Y88.477 E13.56068
G1 X46.906 Y87.563 E13.59188
G1 X47.194 Y86.671 E13.62306
G1 X47.557 Y85.806 E13.65426
G1 X47.992 Y84.975 E13.68546
G1 X48.496 Y84.185 E13.71662
G1 X49.066 Y83.44 E13.74782
G1 X49.698 Y82.746 E13.77904
G1 X50.386 Y82.109 E13.81023
G1 X51.126 Y81.533 E13.84142
G1 X51.912 Y81.021 E13.87262
G0 F6000 X52.291 Y81.264
G1 F1200 X53.111 Y80.846 E13.90323
G1 X53.965 Y80.501 E13.93386
G1 X54.845 Y80.231 E13.96448
G1 X55.745 Y80.039 E13.99509
G1 X56.659 Y79.925 E14.02572
G1 X57.212 Y79.895 E14.04414
G1 X57.533 Y79.886 E14.05482
G1 X57.83 Y79.882 E14.0647
G1 X176.793 Y79.882 E18.02143
G1 X177.643 Y79.893 E18.0497
G1 X178.562 Y79.946 E18.08032
G1 X179.473 Y80.079 E18.11094
G1 X180.369 Y80.29 E18.14156
G1 X181.243 Y80.578 E18.17216
G1 X182.09 Y80.941 E18.20281
G1 X182.901 Y81.376 E18.23342
G1 X183.671 Y81.88 E18.26403
G1 X184.395 Y82.449 E18.29466
G1 X185.067 Y83.079 E18.32529
G1 X185.682 Y83.764 E18.35591
G1 X186.235 Y84.5 E18.38653
G1 X186.722 Y85.281 E18.41714
G1 X187.139 Y86.102 E18.44777
G1 X187.484 Y86.956 E18.47841
G1 X187.753 Y87.836 E18.50901
G1 X187.945 Y88.737 E18.53965
G1 X188.058 Y89.65 E18.57025
G1 X188.087 Y90.194 E18.58837
G1 X188.096 Y90.514 E18.59902
G1 X188.1 Y90.812 E18.60893
G1 X188.099 Y143.913 E20.37508
G1 X188.09 Y144.64 E20.39926
G1 X188.039 Y145.559 E20.42987
G1 X187.908 Y146.471 E20.46051
G1 X187.698 Y147.367 E20.49112
G1 X187.412 Y148.242 E20.52174
G1 X187.051 Y149.089 E20.55236
G1 X186.617 Y149.901 E20.58299
G1 X186.115 Y150.673 E20.61362
G1 X185.547 Y151.398 E20.64425
G1 X184.919 Y152.071 E20.67486
G1 X184.235 Y152.687 E20.70548
G1 X183.5 Y153.241 E20.73609
G1 X182.72 Y153.73 E20.76671
G1 X181.9 Y154.149 E20.79734
G1 X181.047 Y154.495 E20.82796
G1 X180.167 Y154.766 E20.85858
G1 X179.267 Y154.959 E20.8892
G1 X178.353 Y155.074 E20.91983
G1 X177.788 Y155.105 E20.93866
G1 X177.467 Y155.114 E20.94934
G1 X177.17 Y155.118 E20.95922
G1 X58.207 Y155.118 E24.91594
G1 X57.372 Y155.108 E24.94371
G1 X56.453 Y155.056 E24.97433
G1 X55.542 Y154.925 E25.00494
G1 X54.646 Y154.715 E25.03555
G1 X53.771 Y154.428 E25.06618
G1 X52.924 Y154.066 E25.09681
G1 X52.112 Y153.632 E25.12744
G1 X51.341 Y153.13 E25.15804
G1 X50.616 Y152.562 E25.18867
G1 X49.943 Y151.933 E25.21931
G1 X49.328 Y151.249 E25.2499
G1 X48.774 Y150.514 E25.28051
G1 X48.286 Y149.733 E25.31115
G1 X47.867 Y148.913 E25.34177
G1 X47.521 Y148.06 E25.37239
G1 X47.251 Y147.18 E25.403
G1 X47.058 Y146.279 E25.43365
G1 X46.944 Y145.366 E25.46425
G1 X46.913 Y144.795 E25.48327
G1 X46.904 Y144.462 E25.49435
G1 X46.9 Y144.176 E25.50387
G1 X46.901 Y91.013 E27.27207
G1 X46.91 Y90.348 E27.29419
G1 X46.962 Y89.428 E27.32484
G1 X47.094 Y88.517 E27.35546
G1 X47.305 Y87.621 E27.38608
G1 X47.592 Y86.746 E27.4167
G1 X47.955 Y85.9 E27.44732
G1 X48.389 Y85.088 E27.47795
G1 X48.892 Y84.317 E27.50856
G1 X49.461 Y83.593 E27.53919
G1 X50.089 Y82.921 E27.56978
G1 X50.774 Y82.305 E27.60042
G1 X51.51 Y81.752 E27.63104
G1 X52.291 Y81.264 E27.66167
G0 F6000 X52.669 Y81.513
G1 F1200 X53.482 Y81.12 E27.69171
G1 X54.327 Y80.8 E27.72176
G1 X55.196 Y80.557 E27.75177
G1 X56.084 Y80.391 E27.78182
G1 X57.223 Y80.295 E27.81984
G1 X57.544 Y80.286 E27.83052
G1 X57.83 Y80.282 E27.84003
G1 X176.793 Y80.282 E31.79675
G1 X177.637 Y80.293 E31.82483
G1 X178.539 Y80.346 E31.85488
G1 X179.432 Y80.478 E31.8849
G1 X180.31 Y80.689 E31.91494
G1 X181.166 Y80.977 E31.94498
G1 X181.993 Y81.339 E31.975
G1 X182.785 Y81.774 E32.00506
G1 X183.536 Y82.276 E32.0351
G1 X184.239 Y82.843 E32.06514
G1 X184.889 Y83.47 E32.09518
G1 X185.481 Y84.152 E32.12522
G1 X186.011 Y84.883 E32.15525
G1 X186.473 Y85.659 E32.18529
G1 X186.866 Y86.472 E32.21532
G1 X187.184 Y87.317 E32.24535
G1 X187.427 Y88.187 E32.27539
G1 X187.592 Y89.075 E32.30543
G1 X187.687 Y90.205 E32.34315
G1 X187.696 Y90.525 E32.3538
G1 X187.7 Y90.812 E32.36334
G1 X187.699 Y143.908 E34.12932
G1 X187.69 Y144.635 E34.15351
G1 X187.639 Y145.537 E34.18355
G1 X187.508 Y146.431 E34.21361
G1 X187.299 Y147.309 E34.24362
G1 X187.013 Y148.166 E34.27367
G1 X186.652 Y148.994 E34.30372
G1 X186.22 Y149.786 E34.33372
G1 X185.719 Y150.538 E34.36378
G1 X185.153 Y151.242 E34.39382
G1 X184.528 Y151.893 E34.42384
G1 X183.847 Y152.487 E34.45389
G1 X183.116 Y153.018 E34.48394
G1 X182.342 Y153.482 E34.51396
G1 X181.529 Y153.876 E34.54401
G1 X180.685 Y154.196 E34.57403
G1 X179.815 Y154.441 E34.60409
G1 X178.928 Y154.607 E34.6341
G1 X177.777 Y154.705 E34.67253
G1 X177.456 Y154.714 E34.68321
G1 X177.17 Y154.718 E34.69272
G1 X58.207 Y154.718 E38.64944
G1 X57.377 Y154.708 E38.67705
G1 X56.476 Y154.657 E38.70707
G1 X55.582 Y154.525 E38.73712
G1 X54.704 Y154.316 E38.76714
G1 X53.847 Y154.029 E38.7972
G1 X53.02 Y153.668 E38.82722
G1 X52.227 Y153.235 E38.85727
G1 X51.476 Y152.734 E38.88729
G1 X50.772 Y152.168 E38.91734
G1 X50.121 Y151.542 E38.94738
G1 X49.528 Y150.861 E38.97741
G1 X48.998 Y150.13 E39.00744
G1 X48.534 Y149.355 E39.03748
G1 X48.14 Y148.542 E39.06753
G1 X47.82 Y147.698 E39.09755
G1 X47.576 Y146.828 E39.12761
G1 X47.41 Y145.94 E39.15765
G1 X47.313 Y144.785 E39.1962
G1 X47.304 Y144.452 E39.20728
G1 X47.3 Y144.176 E39.21647
G1 X47.301 Y91.018 E40.98451
G1 X47.31 Y90.353 E41.00663
G1 X47.362 Y89.451 E41.03668
G1 X47.494 Y88.558 E41.0667
G1 X47.704 Y87.68 E41.09673
G1 X47.991 Y86.823 E41.12679
G1 X48.353 Y85.996 E41.15681
G1 X48.786 Y85.204 E41.18684
G1 X49.288 Y84.453 E41.21688
G1 X49.855 Y83.749 E41.24695
G1 X50.481 Y83.099 E41.27696
G1 X51.162 Y82.506 E41.30699
G1 X51.894 Y81.976 E41.33705
G1 X52.669 Y81.513 E41.36708
G1 F2700 E36.36708
;MESH:Testo.jpg
G0 F6000 X58.31 Y89.817
G0 X58.31 Y91.292
G0 X58.282 Y143.736
G0 X176.9 Y143.918
;TYPE:WALL-INNER
G1 F2700 E41.36708
G1 F1200 X58.1 Y143.918 E45.31838
G1 X58.1 Y91.082 E47.07572
G1 X176.9 Y91.082 E51.02702
G1 X176.9 Y143.918 E52.78435
G0 F6000 X177.3 Y144.318
;TYPE:WALL-OUTER
G1 F1200 X57.7 Y144.318 E56.76226
G1 X57.7 Y90.682 E58.5462
G1 X177.3 Y90.682 E62.52412
G1 X177.3 Y144.318 E64.30806
G0 F6000 X177.03 Y144.048
G0 X176.79 Y143.528
G0 X176.51 Y143.528
;TYPE:SKIN
G1 F1200 X58.49 Y143.528 E68.23342
G1 X58.49 Y91.472 E69.96481
G1 X176.51 Y91.472 E73.89017
G1 X176.51 Y143.528 E75.62156
G1 F2700 E70.62156
G0 F6000 X176.79 Y143.528
G0 X176.79 Y92.061
G0 X176.348 Y92.061
G1 F2700 E75.62156
G1 F1200 X175.918 Y91.631 E75.64178
G0 F6000 X175.353 Y91.631
G1 F1200 X176.348 Y92.627 E75.68861
G0 F6000 X176.348 Y93.193
G1 F1200 X174.787 Y91.631 E75.76206
G0 F6000 X174.221 Y91.631
G1 F1200 X176.348 Y93.758 E75.86211
G0 F6000 X176.348 Y94.324
G1 F1200 X173.656 Y91.631 E75.98875
G0 F6000 X173.09 Y91.631
G1 F1200 X176.348 Y94.89 E76.14202
G0 F6000 X176.348 Y95.455
G1 F1200 X172.524 Y91.631 E76.32189
G0 F6000 X171.959 Y91.631
G1 F1200 X176.348 Y96.021 E76.52836
G0 F6000 X176.348 Y96.587
G1 F1200 X171.393 Y91.631 E76.76145
G0 F6000 X170.827 Y91.631
G1 F1200 X176.348 Y97.152 E77.02114
G0 F6000 X176.348 Y97.718
G1 F1200 X170.262 Y91.631 E77.30743
G0 F6000 X169.696 Y91.631
G1 F1200 X176.348 Y98.284 E77.62035
G0 F6000 X176.348 Y98.849
G1 F1200 X169.13 Y91.631 E77.95986
G0 F6000 X168.565 Y91.631
G1 F1200 X176.348 Y99.415 E78.32597
G0 F6000 X176.348 Y99.981
G1 F1200 X167.999 Y91.631 E78.71871
G0 F6000 X167.433 Y91.631
G1 F1200 X176.348 Y100.547 E79.13806
G0 F6000 X176.348 Y101.112
G1 F1200 X166.868 Y91.631 E79.584
G0 F6000 X166.302 Y91.631
G1 F1200 X176.348 Y101.678 E80.05655
G0 F6000 X176.348 Y102.244
G1 F1200 X165.736 Y91.631 E80.55573
G0 F6000 X165.17 Y91.631
G1 F1200 X176.348 Y102.809 E81.08151
G0 F6000 X176.348 Y103.375
G1 F1200 X164.605 Y91.631 E81.63389
G0 F6000 X164.039 Y91.631
G1 F1200 X176.348 Y103.941 E82.21289
G0 F6000 X176.348 Y104.506
G1 F1200 X163.473 Y91.631 E82.81849
G0 F6000 X162.908 Y91.631
G1 F1200 X176.348 Y105.072 E83.45069
G0 F6000 X176.348 Y105.638
G1 F1200 X162.342 Y91.631 E84.10951
G0 F6000 X161.776 Y91.631
G1 F1200 X176.348 Y106.203 E84.79494
G0 F6000 X176.348 Y106.769
G1 F1200 X161.211 Y91.631 E85.50696
G0 F6000 X160.645 Y91.631
G1 F1200 X176.348 Y107.335 E86.2456
G0 F6000 X176.348 Y107.9
G1 F1200 X160.079 Y91.631 E87.01085
G0 F6000 X159.514 Y91.631
G1 F1200 X176.348 Y108.466 E87.80269
G0 F6000 X176.348 Y109.032
G1 F1200 X158.948 Y91.631 E88.62116
G0 F6000 X158.382 Y91.631
G1 F1200 X176.348 Y109.598 E89.46625
G0 F6000 X176.348 Y110.163
G1 F1200 X157.817 Y91.631 E90.33791
G0 F6000 X157.251 Y91.631
G1 F1200 X176.348 Y110.729 E91.2362
G0 F6000 X176.348 Y111.295
G1 F1200 X156.685 Y91.631 E92.16111
G0 F6000 X156.119 Y91.631
G1 F1200 X176.348 Y111.86 E93.11262
G0 F6000 X176.348 Y112.426
G1 F1200 X155.554 Y91.631 E94.09073
G0 F6000 X154.988 Y91.631
G1 F1200 X176.348 Y112.992 E95.09546
G0 F6000 X176.348 Y113.557
G1 F1200 X154.422 Y91.631 E96.12679
G0 F6000 X153.857 Y91.631
G1 F1200 X176.348 Y114.123 E97.18472
G0 F6000 X176.348 Y114.689
G1 F1200 X153.291 Y91.631 E98.26928
G0 F6000 X152.725 Y91.631
G1 F1200 X176.348 Y115.254 E99.38043
G0 F6000 X176.348 Y115.82
G1 F1200 X152.16 Y91.631 E100.51818
G0 F6000 X151.594 Y91.631
G1 F1200 X176.348 Y116.386 E101.68256
G0 F6000 X176.348 Y116.951
G1 F1200 X151.028 Y91.631 E102.87354
G0 F6000 X150.463 Y91.631
G1 F1200 X176.348 Y117.517 E104.09111
G0 F6000 X176.348 Y118.083
G1 F1200 X149.897 Y91.631 E105.33531
G0 F6000 X149.331 Y91.631
G1 F1200 X176.348 Y118.648 E106.6061
G0 F6000 X176.348 Y119.214
G1 F1200 X148.766 Y91.631 E107.9035
G0 F6000 X148.2 Y91.631
G1 F1200 X176.348 Y119.78 E109.22752
G0 F6000 X176.348 Y120.346
G1 F1200 X147.634 Y91.631 E110.57816
G0 F6000 X147.069 Y91.631
G1 F1200 X176.348 Y120.911 E111.95538
G0 F6000 X176.348 Y121.477
G1 F1200 X146.503 Y91.631 E113.35922
G0 F6000 X145.937 Y91.631
G1 F1200 X176.348 Y122.043 E114.78968
G0 F6000 X176.348 Y122.608
G1 F1200 X145.371 Y91.631 E116.24675
G0 F6000 X144.806 Y91.631
G1 F1200 X176.348 Y123.174 E117.73041
G0 F6000 X176.348 Y123.74
G1 F1200 X144.24 Y91.631 E119.2407
G0 F6000 X143.674 Y91.631
G1 F1200 X176.348 Y124.305 E120.77758
G0 F6000 X176.348 Y124.871
G1 F1200 X143.109 Y91.631 E122.34106
G0 F6000 X142.543 Y91.631
G1 F1200 X176.348 Y125.437 E123.93117
G0 F6000 X176.348 Y126.002
G1 F1200 X141.977 Y91.631 E125.54788
G0 F6000 X141.412 Y91.631
G1 F1200 X176.348 Y126.568 E127.19118
G0 F6000 X176.348 Y127.134
G1 F1200 X140.846 Y91.631 E128.86111
G0 F6000 X140.28 Y91.631
G1 F1200 X176.348 Y127.699 E130.55764
G0 F6000 X176.348 Y128.265
G1 F1200 X139.715 Y91.631 E132.28077
G0 F6000 X139.149 Y91.631
G1 F1200 X176.348 Y128.831 E134.03052
G0 F6000 X176.348 Y129.397
G1 F1200 X138.583 Y91.631 E135.80689
G0 F6000 X138.018 Y91.631
G1 F1200 X176.348 Y129.962 E137.60984
G0 F6000 X176.348 Y130.528
G1 F1200 X137.452 Y91.631 E139.43941
G0 F6000 X136.886 Y91.631
G1 F1200 X176.348 Y131.094 E141.29561
G0 F6000 X176.348 Y131.659
G1 F1200 X136.32 Y91.631 E143.1784
G0 F6000 X135.755 Y91.631
G1 F1200 X176.348 Y132.225 E145.0878
G0 F6000 X176.348 Y132.791
G1 F1200 X135.189 Y91.631 E147.02381
G0 F6000 X134.623 Y91.631
G1 F1200 X176.348 Y133.356 E148.98643
G0 F6000 X176.348 Y133.922
G1 F1200 X134.058 Y91.631 E150.97564
G0 F6000 X133.492 Y91.631
G1 F1200 X176.348 Y134.488 E152.99148
G0 F6000 X176.348 Y135.053
G1 F1200 X132.926 Y91.631 E155.03392
G0 F6000 X132.361 Y91.631
G1 F1200 X176.348 Y135.619 E157.10296
G0 F6000 X176.348 Y136.185
G1 F1200 X131.795 Y91.631 E159.19862
G0 F6000 X131.229 Y91.631
G1 F1200 X176.348 Y136.75 E161.32088
G0 F6000 X176.348 Y137.316
G1 F1200 X130.664 Y91.631 E163.46974
G0 F6000 X130.098 Y91.631
G1 F1200 X176.348 Y137.882 E165.64522
G0 F6000 X176.348 Y138.447
G1 F1200 X129.532 Y91.631 E167.8473
G0 F6000 X128.967 Y91.631
G1 F1200 X176.348 Y139.013 E170.07598
G0 F6000 X176.348 Y139.579
G1 F1200 X128.401 Y91.631 E172.33128
G0 F6000 X127.835 Y91.631
G1 F1200 X176.348 Y140.145 E174.61321
G0 F6000 X176.348 Y140.71
G1 F1200 X127.27 Y91.631 E176.92171
G0 F6000 X126.704 Y91.631
G1 F1200 X176.348 Y141.276 E179.25684
G0 F6000 X176.348 Y141.842
G1 F1200 X126.138 Y91.631 E181.61858
G0 F6000 X125.572 Y91.631
G1 F1200 X176.348 Y142.407 E184.00693
G0 F6000 X176.348 Y142.973
G1 F1200 X125.007 Y91.631 E186.42188
G0 F6000 X124.441 Y91.631
G1 F1200 X176.177 Y143.367 E188.85538
G0 F6000 X175.611 Y143.367
G1 F1200 X123.875 Y91.631 E191.28888
G0 F6000 X123.31 Y91.631
G1 F1200 X175.045 Y143.367 E193.72236
G0 F6000 X174.48 Y143.367
G1 F1200 X122.744 Y91.631 E196.15587
G0 F6000 X122.178 Y91.631
G1 F1200 X173.914 Y143.367 E198.58937
G0 F6000 X173.348 Y143.367
G1 F1200 X121.613 Y91.631 E201.02285
