;FLAVOR:Marlin
;TIME:20366
;Filament used: 14.4572m
;Layer height: 0.2
;MINX:75.75
;MINY:84.625
;MINZ:0.2
;MAXX:159.25
;MAXY:150.375
;MAXZ:83
;Generated with Cura_SteamEngine 4.7.1
M140 S50
M105
M190 S50
M104 S200
M105
M109 S200
M82 ;absolute extrusion mode
; Ender 3 Custom Start G-code
G92 E0 ; Reset Extruder
G28 ; Home all axes
G1 Z2.0 F3000 ; Move Z Axis up little to prevent scratching of Heat Bed
G1 X0.1 Y20 Z0.3 F5000.0 ; Move to start position
G1 X0.1 Y200.0 Z0.3 F1500.0 E15 ; Draw the first line
G1 X0.4 Y200.0 Z0.3 F5000.0 ; Move to side a little
G1 X0.4 Y20 Z0.3 F1500.0 E30 ; Draw the second line
G92 E0 ; Reset Extruder
G1 Z2.0 F3000 ; Move Z Axis up little to prevent scratching of Heat Bed
G1 X5 Y20 Z0.3 F5000.0 ; Move over to prevent blob squish
G92 E0
G92 E0
G1 F2700 E-5
;LAYER_COUNT:415
;LAYER:0
M107
G0 F6000 X79.966 Y88.073 Z0.2
;TYPE:SKIRT
G1 F2700 E0
G1 F1200 X80.286 Y87.788 E0.01425
G1 X81.012 Y87.194 E0.04545
G1 X81.467 Y86.871 E0.06401
G1 X81.531 Y86.828 E0.06658
G1 X82.068 Y86.49 E0.08768
G1 X82.249 Y86.383 E0.09467
G1 X83.076 Y85.94 E0.12588
G1 X83.614 Y85.699 E0.14548
G1 X83.885 Y85.586 E0.15525
G1 X84.765 Y85.263 E0.18643
G1 X85.384 Y85.084 E0.20786
G1 X85.61 Y85.026 E0.21562
G1 X86.527 Y84.832 E0.24679
G1 X87.249 Y84.736 E0.27102
G1 X87.739 Y84.687 E0.2874
G1 X88.366 Y84.642 E0.30831
G1 X88.755 Y84.631 E0.32125
G1 X89.317 Y84.625 E0.33994
G1 X145.543 Y84.625 E2.21003
G1 X146.405 Y84.636 E2.2387
G1 X146.998 Y84.661 E2.25844
G1 X147.203 Y84.675 E2.26527
G1 X148.136 Y84.778 E2.29649
G1 X148.8 Y84.902 E2.31896
G1 X149.249 Y85 E2.33425
G1 X150.156 Y85.239 E2.36544
G1 X150.827 Y85.471 E2.38906
G1 X150.882 Y85.492 E2.39102
G1 X151.349 Y85.683 E2.4078
G1 X151.558 Y85.774 E2.41538
G1 X152.659 Y86.328 E2.45637
G1 X152.718 Y86.362 E2.45864
G1 X153.105 Y86.596 E2.47368
G1 X153.309 Y86.725 E2.48171
G1 X154.08 Y87.259 E2.5129
G1 X154.545 Y87.633 E2.53275
G1 X154.703 Y87.767 E2.53964
G1 X155.392 Y88.403 E2.57083
G1 X155.814 Y88.853 E2.59134
G1 X156.099 Y89.174 E2.60562
G1 X156.691 Y89.901 E2.6368
G1 X157.004 Y90.342 E2.65479
G1 X157.047 Y90.406 E2.65736
G1 X157.376 Y90.927 E2.67785
G1 X157.484 Y91.109 E2.68489
G1 X157.928 Y91.936 E2.71611
G1 X158.171 Y92.476 E2.7358
G1 X158.284 Y92.746 E2.74554
G1 X158.609 Y93.626 E2.77674
G1 X158.803 Y94.303 E2.80016
G1 X158.86 Y94.529 E2.80792
G1 X159.05 Y95.447 E2.8391
G1 X159.139 Y96.122 E2.86174
G1 X159.188 Y96.611 E2.87809
G1 X159.233 Y97.25 E2.89939
G1 X159.244 Y97.63 E2.91204
G1 X159.25 Y98.192 E2.93073
G1 X159.249 Y136.792 E4.21457
G1 X159.239 Y137.524 E4.23892
G1 X159.214 Y138.123 E4.25886
G1 X159.2 Y138.328 E4.26569
G1 X159.097 Y139.261 E4.29691
G1 X158.975 Y139.917 E4.31911
G1 X158.878 Y140.363 E4.33429
G1 X158.64 Y141.27 E4.36548
G1 X158.451 Y141.828 E4.38507
G1 X158.43 Y141.885 E4.38709
G1 X158.201 Y142.456 E4.40755
G1 X158.11 Y142.666 E4.41516
G1 X157.701 Y143.51 E4.44636
G1 X157.463 Y143.929 E4.46239
G1 X157.289 Y144.214 E4.47349
G1 X157.165 Y144.411 E4.48123
G1 X156.632 Y145.182 E4.51241
G1 X156.255 Y145.654 E4.5325
G1 X156.118 Y145.816 E4.53956
G1 X155.483 Y146.506 E4.57075
G1 X155.022 Y146.939 E4.59178
G1 X154.701 Y147.224 E4.60606
G1 X153.974 Y147.816 E4.63724
G1 X153.533 Y148.129 E4.65523
G1 X153.469 Y148.172 E4.65779
G1 X152.946 Y148.502 E4.67836
G1 X152.769 Y148.607 E4.68521
G1 X151.943 Y149.05 E4.71638
G1 X151.432 Y149.281 E4.73503
G1 X151.157 Y149.397 E4.74496
G1 X150.278 Y149.725 E4.77616
G1 X149.572 Y149.928 E4.8006
G1 X149.346 Y149.985 E4.80835
G1 X148.428 Y150.175 E4.83953
G1 X147.751 Y150.264 E4.86224
G1 X147.261 Y150.313 E4.87862
G1 X146.634 Y150.358 E4.89953
G1 X146.245 Y150.369 E4.91247
G1 X145.683 Y150.375 E4.93116
G1 X89.457 Y150.375 E6.80125
G1 X88.595 Y150.364 E6.82992
G1 X88.002 Y150.339 E6.84966
G1 X87.797 Y150.325 E6.8565
G1 X86.864 Y150.222 E6.88772
G1 X86.2 Y150.098 E6.91018
G1 X85.751 Y150 E6.92547
G1 X84.844 Y149.761 E6.95666
G1 X84.173 Y149.529 E6.98028
G1 X84.118 Y149.508 E6.98224
G1 X83.686 Y149.333 E6.99774
G1 X83.475 Y149.242 E7.00538
G1 X82.63 Y148.834 E7.03659
G1 X82.172 Y148.573 E7.05412
G1 X81.895 Y148.404 E7.06492
G1 X81.694 Y148.277 E7.07282
G1 X80.924 Y147.743 E7.10399
G1 X80.437 Y147.352 E7.12476
G1 X80.275 Y147.214 E7.13184
G1 X79.587 Y146.576 E7.16305
G1 X79.178 Y146.138 E7.18298
G1 X78.896 Y145.82 E7.19712
G1 X78.304 Y145.093 E7.2283
G1 X77.735 Y144.25 E7.26213
G1 X77.588 Y144.009 E7.27152
G1 X77.134 Y143.188 E7.30272
G1 X76.849 Y142.569 E7.32539
G1 X76.733 Y142.295 E7.33528
G1 X76.405 Y141.417 E7.36646
G1 X76.186 Y140.653 E7.39289
G1 X76.128 Y140.419 E7.40091
G1 X75.941 Y139.5 E7.4321
G1 X75.859 Y138.863 E7.45346
G1 X75.811 Y138.381 E7.46957
G1 X75.767 Y137.759 E7.49031
G1 X75.756 Y137.37 E7.50326
G1 X75.75 Y136.808 E7.52195
G1 X75.751 Y98.163 E8.80729
G1 X75.761 Y97.46 E8.83067
G1 X75.788 Y96.828 E8.85171
G1 X75.802 Y96.633 E8.85821
G1 X75.909 Y95.702 E8.88938
G1 X76.025 Y95.083 E8.91033
G1 X76.122 Y94.637 E8.92551
G1 X76.36 Y93.73 E8.9567
G1 X76.586 Y93.074 E8.97977
G1 X76.608 Y93.016 E8.98184
G1 X76.79 Y92.566 E8.99798
G1 X76.88 Y92.357 E9.00555
G1 X77.287 Y91.513 E9.03672
G1 X77.537 Y91.071 E9.05361
G1 X77.721 Y90.77 E9.06534
G1 X77.848 Y90.569 E9.07325
G1 X78.382 Y89.799 E9.10441
G1 X78.784 Y89.299 E9.12575
G1 X78.919 Y89.141 E9.13266
G1 X79.558 Y88.455 E9.16385
G1 X79.966 Y88.073 E9.18244
G0 F6000 X80.232 Y88.371
G1 F1200 X80.552 Y88.086 E9.19669
G1 X81.266 Y87.504 E9.22733
G1 X81.69 Y87.203 E9.24462
G1 X81.754 Y87.16 E9.24718
G1 X82.272 Y86.834 E9.26754
G1 X82.453 Y86.727 E9.27453
G1 X83.265 Y86.294 E9.30514
G1 X83.768 Y86.068 E9.32348
G1 X84.039 Y85.955 E9.33325
G1 X84.903 Y85.638 E9.36386
G1 X85.483 Y85.472 E9.38392
G1 X85.709 Y85.414 E9.39168
G1 X86.61 Y85.224 E9.42231
G1 X87.289 Y85.134 E9.44509
G1 X87.779 Y85.085 E9.46147
G1 X88.383 Y85.042 E9.48161
G1 X88.759 Y85.031 E9.49412
G1 X89.317 Y85.025 E9.51268
G1 X145.543 Y85.025 E11.38277
G1 X146.399 Y85.036 E11.41124
G1 X146.971 Y85.06 E11.43028
G1 X147.176 Y85.074 E11.43712
G1 X148.091 Y85.176 E11.46774
G1 X148.714 Y85.293 E11.48882
G1 X149.163 Y85.391 E11.50411
G1 X150.053 Y85.626 E11.53472
G1 X150.684 Y85.844 E11.55693
G1 X150.739 Y85.865 E11.55888
G1 X151.19 Y86.049 E11.57508
G1 X151.399 Y86.14 E11.58267
G1 X152.46 Y86.675 E11.62219
G1 X152.519 Y86.709 E11.62445
G1 X152.891 Y86.934 E11.63891
G1 X153.095 Y87.063 E11.64694
G1 X153.851 Y87.588 E11.67755
G1 X154.286 Y87.938 E11.69612
G1 X154.444 Y88.072 E11.70301
G1 X155.12 Y88.697 E11.73363
G1 X155.515 Y89.118 E11.75284
G1 X155.8 Y89.439 E11.76711
G1 X156.38 Y90.154 E11.79773
G1 X156.672 Y90.565 E11.8145
G1 X156.715 Y90.629 E11.81707
G1 X157.032 Y91.132 E11.83684
G1 X157.14 Y91.314 E11.84388
G1 X157.575 Y92.125 E11.87449
G1 X157.802 Y92.631 E11.89294
G1 X157.915 Y92.901 E11.90267
G1 X158.233 Y93.765 E11.93329
G1 X158.415 Y94.401 E11.9553
G1 X158.472 Y94.627 E11.96305
G1 X158.658 Y95.528 E11.99365
G1 X158.741 Y96.162 E12.01491
G1 X158.79 Y96.651 E12.03126
G1 X158.834 Y97.267 E12.0518
G1 X158.844 Y97.634 E12.06401
G1 X158.85 Y98.192 E12.08257
G1 X158.849 Y136.787 E13.36625
G1 X158.839 Y137.519 E13.39059
G1 X158.815 Y138.096 E13.4098
G1 X158.801 Y138.301 E13.41664
G1 X158.699 Y139.216 E13.44726
G1 X158.584 Y139.832 E13.4681
G1 X158.487 Y140.278 E13.48328
G1 X158.252 Y141.168 E13.5139
G1 X158.075 Y141.689 E13.5322
G1 X158.054 Y141.746 E13.53422
G1 X157.834 Y142.297 E13.55395
G1 X157.743 Y142.507 E13.56156
G1 X157.119 Y143.724 E13.60705
G1 X156.951 Y144.001 E13.61783
G1 X156.827 Y144.198 E13.62557
G1 X156.303 Y144.955 E13.65619
G1 X155.95 Y145.396 E13.67498
G1 X155.813 Y145.558 E13.68204
G1 X155.188 Y146.234 E13.71266
G1 X154.757 Y146.64 E13.73235
G1 X154.436 Y146.925 E13.74663
G1 X153.721 Y147.505 E13.77725
G1 X153.31 Y147.797 E13.79402
G1 X153.246 Y147.84 E13.79658
G1 X152.742 Y148.158 E13.8164
G1 X152.565 Y148.263 E13.82325
G1 X151.754 Y148.697 E13.85384
G1 X151.277 Y148.913 E13.87126
G1 X151.002 Y149.029 E13.88118
G1 X150.139 Y149.349 E13.9118
G1 X149.474 Y149.54 E13.93481
G1 X149.248 Y149.597 E13.94256
G1 X148.347 Y149.783 E13.97316
G1 X147.711 Y149.866 E13.99449
G1 X147.221 Y149.915 E14.01087
G1 X146.617 Y149.958 E14.03101
G1 X146.241 Y149.969 E14.04352
G1 X145.683 Y149.975 E14.06208
G1 X89.457 Y149.975 E15.93217
G1 X88.601 Y149.964 E15.96064
G1 X88.029 Y149.94 E15.97968
G1 X87.824 Y149.926 E15.98652
G1 X86.909 Y149.824 E16.01714
G1 X86.286 Y149.707 E16.03822
G1 X85.837 Y149.609 E16.05351
G1 X84.947 Y149.374 E16.08412
G1 X84.316 Y149.156 E16.10633
G1 X84.261 Y149.135 E16.10829
G1 X83.844 Y148.965 E16.12326
G1 X83.633 Y148.874 E16.13091
G1 X82.804 Y148.473 E16.16154
G1 X82.377 Y148.23 E16.17788
G1 X82.109 Y148.066 E16.18833
G1 X81.908 Y147.939 E16.19623
G1 X81.152 Y147.414 E16.22685
G1 X80.696 Y147.047 E16.24632
G1 X80.534 Y146.909 E16.25339
G1 X79.86 Y146.282 E16.28401
G1 X79.477 Y145.873 E16.30265
G1 X79.195 Y145.555 E16.31678
G1 X78.615 Y144.84 E16.34741
G1 X78.077 Y144.042 E16.37942
G1 X77.93 Y143.801 E16.38881
G1 X77.485 Y142.995 E16.41943
G1 X77.218 Y142.414 E16.44069
G1 X77.102 Y142.14 E16.45059
G1 X76.78 Y141.277 E16.48123
G1 X76.574 Y140.557 E16.50614
G1 X76.516 Y140.323 E16.51415
G1 X76.334 Y139.421 E16.54476
G1 X76.257 Y138.823 E16.56481
G1 X76.209 Y138.341 E16.58092
G1 X76.167 Y137.742 E16.6009
G1 X76.156 Y137.366 E16.61341
G1 X76.15 Y136.808 E16.63197
G1 X76.151 Y98.168 E17.91714
G1 X76.161 Y97.465 E17.94052
G1 X76.187 Y96.857 E17.96076
G1 X76.201 Y96.662 E17.96727
G1 X76.307 Y95.747 E17.9979
G1 X76.416 Y95.168 E18.0175
G1 X76.513 Y94.722 E18.03268
G1 X76.748 Y93.832 E18.0633
G1 X76.96 Y93.216 E18.08496
G1 X76.982 Y93.158 E18.08703
G1 X77.157 Y92.725 E18.10256
G1 X77.247 Y92.516 E18.11013
G1 X77.648 Y91.687 E18.14076
G1 X77.881 Y91.276 E18.15647
G1 X78.059 Y90.984 E18.16784
G1 X78.186 Y90.783 E18.17575
G1 X78.711 Y90.027 E18.20637
G1 X79.088 Y89.559 E18.22635
G1 X79.223 Y89.401 E18.23327
G1 X79.851 Y88.728 E18.26388
G1 X80.232 Y88.371 E18.28125
G0 F6000 X80.498 Y88.67
G1 F1200 X80.818 Y88.385 E18.2955
G1 X81.518 Y87.815 E18.32552
G1 X81.914 Y87.535 E18.34166
G1 X81.978 Y87.492 E18.34422
G1 X82.475 Y87.179 E18.36376
G1 X82.656 Y87.072 E18.37075
G1 X83.453 Y86.647 E18.40079
G1 X83.921 Y86.438 E18.41784
G1 X84.192 Y86.325 E18.4276
G1 X85.041 Y86.014 E18.45768
G1 X85.582 Y85.859 E18.47639
G1 X85.808 Y85.801 E18.48415
G1 X86.692 Y85.616 E18.51419
G1 X87.329 Y85.532 E18.53556
G1 X87.819 Y85.483 E18.55194
G1 X88.4 Y85.441 E18.57132
G1 X88.764 Y85.431 E18.58343
G1 X89.317 Y85.425 E18.60182
G1 X145.543 Y85.425 E20.47191
G1 X146.393 Y85.436 E20.50018
G1 X146.944 Y85.459 E20.51852
G1 X147.149 Y85.473 E20.52536
G1 X148.046 Y85.574 E20.55538
G1 X148.629 Y85.684 E20.57511
G1 X149.078 Y85.782 E20.5904
G1 X149.951 Y86.013 E20.62043
G1 X150.541 Y86.218 E20.64121
G1 X150.596 Y86.239 E20.64316
G1 X151.03 Y86.416 E20.65875
G1 X151.239 Y86.507 E20.66634
G1 X152.26 Y87.021 E20.70435
G1 X152.319 Y87.055 E20.70662
G1 X152.677 Y87.272 E20.72054
G1 X152.881 Y87.401 E20.72857
G1 X153.623 Y87.917 E20.75863
G1 X154.027 Y88.243 E20.7759
G1 X154.185 Y88.377 E20.78279
G1 X154.848 Y88.991 E20.81284
G1 X155.216 Y89.384 E20.83075
G1 X155.501 Y89.705 E20.84503
G1 X156.07 Y90.406 E20.87506
G1 X156.34 Y90.789 E20.89064
G1 X156.383 Y90.853 E20.89321
G1 X156.688 Y91.336 E20.91221
G1 X156.796 Y91.518 E20.91925
G1 X157.222 Y92.314 E20.94927
G1 X157.433 Y92.785 E20.96644
G1 X157.546 Y93.055 E20.97617
G1 X157.858 Y93.903 E21.00623
G1 X158.027 Y94.499 E21.02683
G1 X158.084 Y94.725 E21.03458
G1 X158.266 Y95.609 E21.0646
G1 X158.343 Y96.202 E21.08449
G1 X158.392 Y96.691 E21.10084
G1 X158.434 Y97.283 E21.12058
G1 X158.444 Y97.639 E21.13242
G1 X158.45 Y98.192 E21.15082
G1 X158.449 Y136.781 E22.43429
G1 X158.439 Y137.513 E22.45864
G1 X158.416 Y138.069 E22.47715
G1 X158.402 Y138.274 E22.48398
G1 X158.301 Y139.171 E22.51401
G1 X158.193 Y139.747 E22.5335
G1 X158.096 Y140.193 E22.54868
G1 X157.865 Y141.066 E22.57871
G1 X157.7 Y141.551 E22.59575
G1 X157.679 Y141.608 E22.59777
G1 X157.467 Y142.138 E22.61676
G1 X157.376 Y142.348 E22.62437
G1 X156.776 Y143.519 E22.66813
G1 X156.612 Y143.788 E22.67861
G1 X156.488 Y143.985 E22.68635
G1 X155.974 Y144.727 E22.71638
G1 X155.644 Y145.137 E22.73388
G1 X155.507 Y145.299 E22.74094
G1 X154.894 Y145.963 E22.77099
G1 X154.491 Y146.341 E22.78937
G1 X154.17 Y146.626 E22.80365
G1 X153.469 Y147.195 E22.83368
G1 X153.086 Y147.465 E22.84926
G1 X153.022 Y147.508 E22.85183
G1 X152.538 Y147.814 E22.87087
G1 X152.361 Y147.919 E22.87772
G1 X151.565 Y148.344 E22.90773
G1 X151.121 Y148.544 E22.92393
G1 X150.846 Y148.66 E22.93386
G1 X149.999 Y148.974 E22.9639
G1 X149.376 Y149.152 E22.98545
G1 X149.15 Y149.209 E22.9932
G1 X148.266 Y149.391 E23.02322
G1 X147.671 Y149.468 E23.04318
G1 X147.181 Y149.517 E23.05956
G1 X146.6 Y149.559 E23.07893
G1 X146.236 Y149.569 E23.09104
G1 X145.683 Y149.575 E23.10943
G1 X89.457 Y149.575 E24.97952
G1 X88.607 Y149.564 E25.00779
G1 X88.056 Y149.541 E25.02613
G1 X87.851 Y149.527 E25.03297
G1 X86.954 Y149.426 E25.06299
G1 X86.371 Y149.316 E25.08272
G1 X85.922 Y149.218 E25.09801
G1 X85.049 Y148.987 E25.12805
G1 X84.459 Y148.782 E25.14882
G1 X84.404 Y148.761 E25.15078
G1 X84.003 Y148.598 E25.16517
G1 X83.792 Y148.507 E25.17282
G1 X82.979 Y148.113 E25.20287
G1 X82.583 Y147.887 E25.21803
G1 X82.323 Y147.728 E25.22817
G1 X82.122 Y147.601 E25.23608
G1 X81.38 Y147.085 E25.26614
G1 X80.956 Y146.743 E25.28425
G1 X80.794 Y146.605 E25.29133
G1 X80.133 Y145.989 E25.32138
G1 X79.776 Y145.608 E25.33875
G1 X79.494 Y145.29 E25.35289
G1 X78.926 Y144.588 E25.38292
G1 X78.418 Y143.833 E25.41319
G1 X78.271 Y143.592 E25.42258
G1 X77.835 Y142.801 E25.45262
G1 X77.586 Y142.258 E25.47248
G1 X77.47 Y141.984 E25.48238
G1 X77.155 Y141.137 E25.51244
G1 X76.963 Y140.461 E25.53581
G1 X76.905 Y140.227 E25.54383
G1 X76.726 Y139.342 E25.57386
G1 X76.655 Y138.784 E25.59257
G1 X76.607 Y138.302 E25.60868
G1 X76.566 Y137.725 E25.62792
G1 X76.556 Y137.361 E25.64003
G1 X76.55 Y136.808 E25.65842
G1 X76.551 Y98.174 E26.9434
G1 X76.561 Y97.471 E26.96678
G1 X76.586 Y96.886 E26.98626
G1 X76.6 Y96.691 E26.99276
G1 X76.705 Y95.794 E27.0228
G1 X76.807 Y95.253 E27.04111
G1 X76.904 Y94.807 E27.05629
G1 X77.135 Y93.934 E27.08632
G1 X77.334 Y93.358 E27.10659
G1 X77.356 Y93.3 E27.10866
G1 X77.525 Y92.883 E27.12362
G1 X77.615 Y92.674 E27.13119
G1 X78.224 Y91.481 E27.17574
G1 X78.397 Y91.198 E27.18677
G1 X78.524 Y90.997 E27.19468
G1 X79.04 Y90.255 E27.22474
G1 X79.392 Y89.819 E27.24338
G1 X79.527 Y89.661 E27.25029
G1 X80.144 Y89.001 E27.28034
G1 X80.498 Y88.67 E27.29646
G1 F2700 E22.29646
;MESH:boitier final.STL
G0 F6000 X89.433 Y99.417
G0 X87.959 Y99.593
G0 X88.34 Y135.756
G0 X88.575 Y136.483
G0 X89.024 Y137.101
G0 X89.374 Y137.355
G0 X90.343 Y137.944
;TYPE:WALL-INNER
G1 F2700 E27.29646
G1 F1200 X90.726 Y137.975 E27.30924
G1 X144.277 Y137.975 E29.09035
G1 X144.66 Y137.944 E29.10313
G1 X145.057 Y137.85 E29.1167
G1 X145.434 Y137.693 E29.13028
G1 X145.782 Y137.479 E29.14387
G1 X146.092 Y137.215 E29.15742
G1 X146.357 Y136.905 E29.17098
G1 X146.572 Y136.556 E29.18461
G1 X146.728 Y136.179 E29.19818
G1 X146.822 Y135.782 E29.21175
G1 X146.853 Y135.399 E29.22453
G1 X146.853 Y99.601 E30.41518
G1 X146.822 Y99.218 E30.42796
G1 X146.728 Y98.821 E30.44153
G1 X146.572 Y98.444 E30.4551
G1 X146.357 Y98.095 E30.46873
G1 X146.092 Y97.785 E30.4823
G1 X145.782 Y97.521 E30.49584
G1 X145.434 Y97.307 E30.50943
G1 X145.057 Y97.15 E30.52301
G1 X144.66 Y97.056 E30.53658
G1 X144.277 Y97.025 E30.54936
G1 X90.726 Y97.025 E32.33047
G1 X90.343 Y97.056 E32.34325
G1 X89.946 Y97.15 E32.35682
G1 X89.569 Y97.306 E32.37039
