;FLAVOR:Marlin
;TIME:2058
;Filament used: 1.25493m
;Layer height: 0.2
;MINX:46.5
;MINY:79.991
;MINZ:0.2
;MAXX:188.5
;MAXY:155.009
;MAXZ:3.2
;Generated with Cura_SteamEngine 4.7.1
M140 S50
M105
M190 S50
M104 S200
M105
M109 S200
M82 ;absolute extrusion mode
; Ender 3 Custom Start G-code
G92 E0 ; Reset Extruder
G28 ; Home all axes
G1 Z2.0 F3000 ; Move Z Axis up little to prevent scratching of Heat Bed
G1 X0.1 Y20 Z0.3 F5000.0 ; Move to start position
G1 X0.1 Y200.0 Z0.3 F1500.0 E15 ; Draw the first line
G1 X0.4 Y200.0 Z0.3 F5000.0 ; Move to side a little
G1 X0.4 Y20 Z0.3 F1500.0 E30 ; Draw the second line
G92 E0 ; Reset Extruder
G1 Z2.0 F3000 ; Move Z Axis up little to prevent scratching of Heat Bed
G1 X5 Y20 Z0.3 F5000.0 ; Move over to prevent blob squish
G92 E0
G92 E0
G1 F2700 E-5
;LAYER_COUNT:16
;LAYER:0
M107
G0 F6000 X51.912 Y81.53 Z0.2
;TYPE:SKIRT
G1 F2700 E0
G1 F1200 X52.739 Y81.088 E0.03119
G1 X53.601 Y80.718 E0.06239
G1 X54.491 Y80.422 E0.09358
G1 X55.403 Y80.204 E0.12477
G1 X56.33 Y80.063 E0.15596
G1 X57.201 Y80.004 E0.18499
G1 X57.522 Y79.995 E0.19567
G1 X57.83 Y79.991 E0.20592
G1 X176.793 Y79.991 E4.16265
G1 X176.951 Y79.992 E4.1679
G1 X177.649 Y80.002 E4.19112
G1 X178.585 Y80.056 E4.2223
G1 X179.513 Y80.188 E4.25348
G1 X180.427 Y80.4 E4.28468
G1 X181.319 Y80.689 E4.31587
G1 X182.184 Y81.052 E4.34707
G1 X183.014 Y81.488 E4.37825
G1 X183.805 Y81.993 E4.40947
G1 X184.549 Y82.564 E4.44066
G1 X185.242 Y83.196 E4.47186
G1 X185.879 Y83.884 E4.50304
G1 X186.454 Y84.625 E4.53424
G1 X186.965 Y85.411 E4.56542
G1 X187.407 Y86.239 E4.59664
G1 X187.776 Y87.101 E4.62782
G1 X188.071 Y87.991 E4.65901
G1 X188.289 Y88.903 E4.6902
G1 X188.429 Y89.831 E4.72141
G1 X188.487 Y90.692 E4.75011
G1 X188.496 Y91.012 E4.76076
G1 X188.5 Y91.321 E4.77104
G1 X188.499 Y143.409 E6.50349
G1 X188.49 Y144.136 E6.52767
G1 X188.439 Y145.073 E6.55888
G1 X188.307 Y146.001 E6.59006
G1 X188.098 Y146.915 E6.62125
G1 X187.811 Y147.808 E6.65244
G1 X187.449 Y148.674 E6.68366
G1 X187.015 Y149.505 E6.71484
G1 X186.511 Y150.296 E6.74604
G1 X185.942 Y151.041 E6.77722
G1 X185.311 Y151.736 E6.80844
G1 X184.624 Y152.374 E6.83962
G1 X183.885 Y152.951 E6.87081
G1 X183.099 Y153.463 E6.90201
G1 X182.273 Y153.906 E6.93318
G1 X181.411 Y154.278 E6.96441
G1 X180.522 Y154.574 E6.99557
G1 X179.61 Y154.794 E7.02677
G1 X178.683 Y154.935 E7.05796
G1 X177.799 Y154.996 E7.08743
G1 X177.478 Y155.005 E7.09811
G1 X177.17 Y155.009 E7.10836
G1 X58.207 Y155.009 E11.06508
G1 X57.367 Y154.999 E11.09302
G1 X56.431 Y154.947 E11.1242
G1 X55.502 Y154.815 E11.15541
G1 X54.588 Y154.605 E11.1866
G1 X53.695 Y154.318 E11.2178
G1 X52.83 Y153.955 E11.249
G1 X51.999 Y153.521 E11.28018
G1 X51.208 Y153.017 E11.31138
G1 X50.463 Y152.447 E11.34258
G1 X49.769 Y151.816 E11.37378
G1 X49.132 Y151.129 E11.40494
G1 X48.555 Y150.389 E11.43615
G1 X48.043 Y149.603 E11.46735
G1 X47.6 Y148.776 E11.49855
G1 X47.229 Y147.915 E11.52973
G1 X46.933 Y147.025 E11.56093
G1 X46.714 Y146.113 E11.59212
G1 X46.573 Y145.186 E11.62331
G1 X46.513 Y144.297 E11.65295
G1 X46.504 Y143.964 E11.66403
G1 X46.5 Y143.667 E11.67391
G1 X46.501 Y91.516 E13.40846
G1 X46.51 Y90.851 E13.43058
G1 X46.563 Y89.915 E13.46176
G1 X46.695 Y88.986 E13.49297
G1 X46.906 Y88.072 E13.52416
G1 X47.194 Y87.18 E13.55534
G1 X47.557 Y86.315 E13.58654
G1 X47.992 Y85.484 E13.61774
G1 X48.496 Y84.694 E13.64891
G1 X49.066 Y83.949 E13.68011
G1 X49.698 Y83.255 E13.71132
G1 X50.386 Y82.618 E13.74251
G1 X51.126 Y82.042 E13.7737
G1 X51.912 Y81.53 E13.8049
G0 F6000 X52.291 Y81.773
G1 F1200 X53.111 Y81.355 E13.83551
G1 X53.965 Y81.01 E13.86615
G1 X54.845 Y80.74 E13.89676
G1 X55.745 Y80.548 E13.92737
G1 X56.659 Y80.434 E13.958
G1 X57.212 Y80.404 E13.97642
G1 X57.533 Y80.395 E13.98711
G1 X57.83 Y80.391 E13.99698
G1 X176.793 Y80.391 E17.95371
G1 X177.643 Y80.402 E17.98198
G1 X178.562 Y80.455 E18.0126
G1 X179.473 Y80.588 E18.04322
G1 X180.369 Y80.799 E18.07384
G1 X181.243 Y81.087 E18.10444
G1 X182.09 Y81.45 E18.13509
G1 X182.901 Y81.885 E18.1657
G1 X183.671 Y82.389 E18.19631
G1 X184.395 Y82.958 E18.22694
G1 X185.067 Y83.588 E18.25758
G1 X185.682 Y84.273 E18.28819
G1 X186.235 Y85.009 E18.31881
G1 X186.722 Y85.79 E18.34943
G1 X187.139 Y86.611 E18.38005
G1 X187.484 Y87.465 E18.41069
G1 X187.753 Y88.345 E18.44129
G1 X187.945 Y89.246 E18.47193
G1 X188.058 Y90.159 E18.50253
G1 X188.087 Y90.703 E18.52065
G1 X188.096 Y91.023 E18.5313
G1 X188.1 Y91.321 E18.54121
G1 X188.099 Y143.404 E20.2735
G1 X188.09 Y144.131 E20.29768
G1 X188.039 Y145.05 E20.32829
G1 X187.908 Y145.962 E20.35894
G1 X187.698 Y146.858 E20.38955
G1 X187.412 Y147.733 E20.42016
G1 X187.051 Y148.58 E20.45079
G1 X186.617 Y149.392 E20.48141
G1 X186.115 Y150.164 E20.51204
G1 X185.547 Y150.889 E20.54267
G1 X184.919 Y151.562 E20.57329
G1 X184.235 Y152.178 E20.6039
G1 X183.5 Y152.732 E20.63452
G1 X182.72 Y153.221 E20.66514
G1 X181.9 Y153.64 E20.69576
G1 X181.047 Y153.986 E20.72638
G1 X180.167 Y154.257 E20.757
G1 X179.267 Y154.45 E20.78762
G1 X178.353 Y154.565 E20.81826
G1 X177.788 Y154.596 E20.83708
G1 X177.467 Y154.605 E20.84776
G1 X177.17 Y154.609 E20.85764
G1 X58.207 Y154.609 E24.81436
G1 X57.372 Y154.599 E24.84214
G1 X56.453 Y154.547 E24.87275
G1 X55.542 Y154.416 E24.90336
G1 X54.646 Y154.206 E24.93397
G1 X53.771 Y153.919 E24.9646
G1 X52.924 Y153.557 E24.99524
G1 X52.112 Y153.123 E25.02586
G1 X51.341 Y152.621 E25.05646
G1 X50.616 Y152.053 E25.08709
G1 X49.943 Y151.424 E25.11773
G1 X49.328 Y150.74 E25.14833
G1 X48.774 Y150.005 E25.17894
G1 X48.286 Y149.224 E25.20957
G1 X47.867 Y148.404 E25.2402
G1 X47.521 Y147.551 E25.27081
G1 X47.251 Y146.671 E25.30143
G1 X47.058 Y145.77 E25.33208
G1 X46.944 Y144.857 E25.36268
G1 X46.913 Y144.286 E25.3817
G1 X46.904 Y143.953 E25.39278
G1 X46.9 Y143.667 E25.40229
G1 X46.901 Y91.522 E27.13664
G1 X46.91 Y90.857 E27.15876
G1 X46.962 Y89.937 E27.18941
G1 X47.094 Y89.026 E27.22002
G1 X47.305 Y88.13 E27.25064
G1 X47.592 Y87.255 E27.28127
G1 X47.955 Y86.409 E27.31189
G1 X48.389 Y85.597 E27.34251
G1 X48.892 Y84.826 E27.37313
G1 X49.461 Y84.102 E27.40376
G1 X50.089 Y83.43 E27.43435
G1 X50.774 Y82.814 E27.46499
G1 X51.51 Y82.261 E27.49561
G1 X52.291 Y81.773 E27.52624
G0 F6000 X52.669 Y82.022
G1 F1200 X53.482 Y81.629 E27.55627
G1 X54.327 Y81.309 E27.58632
G1 X55.196 Y81.066 E27.61634
G1 X56.084 Y80.9 E27.64638
G1 X57.223 Y80.804 E27.6844
G1 X57.544 Y80.795 E27.69508
G1 X57.83 Y80.791 E27.70459
G1 X176.793 Y80.791 E31.66132
G1 X177.637 Y80.802 E31.68939
G1 X178.539 Y80.855 E31.71945
G1 X179.432 Y80.987 E31.74947
G1 X180.31 Y81.198 E31.7795
G1 X181.166 Y81.486 E31.80954
G1 X181.993 Y81.848 E31.83957
G1 X182.785 Y82.283 E31.86962
G1 X183.536 Y82.785 E31.89967
G1 X184.239 Y83.352 E31.92971
G1 X184.889 Y83.979 E31.95974
G1 X185.481 Y84.661 E31.98978
G1 X186.011 Y85.392 E32.01981
G1 X186.473 Y86.168 E32.04985
G1 X186.866 Y86.981 E32.07988
G1 X187.184 Y87.826 E32.10991
G1 X187.427 Y88.696 E32.13996
G1 X187.592 Y89.584 E32.17
G1 X187.687 Y90.714 E32.20771
G1 X187.696 Y91.034 E32.21836
G1 X187.7 Y91.321 E32.22791
G1 X187.699 Y143.399 E33.96003
G1 X187.69 Y144.126 E33.98421
G1 X187.639 Y145.028 E34.01426
G1 X187.508 Y145.922 E34.04431
G1 X187.299 Y146.8 E34.07433
G1 X187.013 Y147.657 E34.10438
G1 X186.652 Y148.485 E34.13442
G1 X186.22 Y149.277 E34.16443
G1 X185.719 Y150.029 E34.19448
G1 X185.153 Y150.733 E34.22453
G1 X184.528 Y151.384 E34.25454
G1 X183.847 Y151.978 E34.2846
G1 X183.116 Y152.509 E34.31465
G1 X182.342 Y152.973 E34.34466
G1 X181.529 Y153.367 E34.37471
G1 X180.685 Y153.687 E34.40473
G1 X179.815 Y153.932 E34.4348
G1 X178.928 Y154.098 E34.46481
G1 X177.777 Y154.196 E34.50323
G1 X177.456 Y154.205 E34.51391
G1 X177.17 Y154.209 E34.52343
G1 X58.207 Y154.209 E38.48015
G1 X57.377 Y154.199 E38.50776
G1 X56.476 Y154.148 E38.53777
G1 X55.582 Y154.016 E38.56783
G1 X54.704 Y153.807 E38.59785
G1 X53.847 Y153.52 E38.62791
G1 X53.02 Y153.159 E38.65792
G1 X52.227 Y152.726 E38.68797
G1 X51.476 Y152.225 E38.718
G1 X50.772 Y151.659 E38.74804
G1 X50.121 Y151.033 E38.77808
G1 X49.528 Y150.352 E38.80812
G1 X48.998 Y149.621 E38.83815
G1 X48.534 Y148.846 E38.86819
G1 X48.14 Y148.033 E38.89824
G1 X47.82 Y147.189 E38.92826
G1 X47.576 Y146.319 E38.95831
G1 X47.41 Y145.431 E38.98836
G1 X47.313 Y144.276 E39.02691
G1 X47.304 Y143.943 E39.03799
G1 X47.3 Y143.667 E39.04717
G1 X47.301 Y91.527 E40.78135
G1 X47.31 Y90.862 E40.80347
G1 X47.362 Y89.96 E40.83352
G1 X47.494 Y89.067 E40.86355
G1 X47.704 Y88.189 E40.89358
G1 X47.991 Y87.332 E40.92363
G1 X48.353 Y86.505 E40.95366
G1 X48.786 Y85.713 E40.98368
G1 X49.288 Y84.962 E41.01373
G1 X49.855 Y84.258 E41.04379
G1 X50.481 Y83.608 E41.07381
G1 X51.162 Y83.015 E41.10384
G1 X51.894 Y82.485 E41.1339
G1 X52.669 Y82.022 E41.16393
G1 F2700 E36.16393
;MESH:el fuego.jpg
G0 F6000 X58.31 Y90.326
G0 X58.31 Y91.801
G0 X58.282 Y143.227
G0 X176.9 Y143.409
;TYPE:WALL-INNER
G1 F2700 E41.16393
G1 F1200 X58.1 Y143.409 E45.11523
G1 X58.1 Y91.591 E46.8387
G1 X176.9 Y91.591 E50.79001
G1 X176.9 Y143.409 E52.51348
G0 F6000 X177.3 Y143.809
;TYPE:WALL-OUTER
G1 F1200 X57.7 Y143.809 E56.49139
G1 X57.7 Y91.191 E58.24148
G1 X177.3 Y91.191 E62.21939
G1 X177.3 Y143.809 E63.96947
G0 F6000 X177.03 Y143.539
G0 X176.79 Y143.019
G0 X176.51 Y143.019
;TYPE:SKIN
G1 F1200 X58.49 Y143.019 E67.89483
G1 X58.49 Y91.981 E69.59236
G1 X176.51 Y91.981 E73.51772
G1 X176.51 Y143.019 E75.21525
G1 F2700 E70.21525
G0 F6000 X176.79 Y143.019
G0 X176.79 Y92.627
G0 X176.348 Y92.627
G1 F2700 E75.21525
G1 F1200 X175.862 Y92.14 E75.23814
G0 F6000 X175.296 Y92.14
G1 F1200 X176.348 Y93.193 E75.28764
G0 F6000 X176.348 Y93.758
G1 F1200 X174.731 Y92.14 E75.36372
G0 F6000 X174.165 Y92.14
G1 F1200 X176.348 Y94.324 E75.46643
G0 F6000 X176.348 Y94.89
G1 F1200 X173.599 Y92.14 E75.59576
G0 F6000 X173.033 Y92.14
G1 F1200 X176.348 Y95.455 E75.75169
G0 F6000 X176.348 Y96.021
G1 F1200 X172.468 Y92.14 E75.93421
G0 F6000 X171.902 Y92.14
G1 F1200 X176.348 Y96.587 E76.14336
G0 F6000 X176.348 Y97.152
G1 F1200 X171.336 Y92.14 E76.37911
G0 F6000 X170.771 Y92.14
G1 F1200 X176.348 Y97.718 E76.64146
G0 F6000 X176.348 Y98.284
G1 F1200 X170.205 Y92.14 E76.93043
G0 F6000 X169.639 Y92.14
G1 F1200 X176.348 Y98.849 E77.246
G0 F6000 X176.348 Y99.415
G1 F1200 X169.074 Y92.14 E77.58817
G0 F6000 X168.508 Y92.14
G1 F1200 X176.348 Y99.981 E77.95697
G0 F6000 X176.348 Y100.547
G1 F1200 X167.942 Y92.14 E78.35238
G0 F6000 X167.377 Y92.14
G1 F1200 X176.348 Y101.112 E78.77437
G0 F6000 X176.348 Y101.678
G1 F1200 X166.811 Y92.14 E79.22299
G0 F6000 X166.245 Y92.14
G1 F1200 X176.348 Y102.244 E79.69823
G0 F6000 X176.348 Y102.809
G1 F1200 X165.68 Y92.14 E80.20004
G0 F6000 X165.114 Y92.14
G1 F1200 X176.348 Y103.375 E80.72848
G0 F6000 X176.348 Y103.941
G1 F1200 X164.548 Y92.14 E81.28353
G0 F6000 X163.983 Y92.14
G1 F1200 X176.348 Y104.506 E81.86517
G0 F6000 X176.348 Y105.072
G1 F1200 X163.417 Y92.14 E82.47343
G0 F6000 X162.851 Y92.14
G1 F1200 X176.348 Y105.638 E83.10831
G0 F6000 X176.348 Y106.203
G1 F1200 X162.285 Y92.14 E83.76979
G0 F6000 X161.72 Y92.14
G1 F1200 X176.348 Y106.769 E84.45787
G0 F6000 X176.348 Y107.335
G1 F1200 X161.154 Y92.14 E85.17257
G0 F6000 X160.588 Y92.14
G1 F1200 X176.348 Y107.9 E85.91387
G0 F6000 X176.348 Y108.466
G1 F1200 X160.023 Y92.14 E86.68178
G0 F6000 X159.457 Y92.14
G1 F1200 X176.348 Y109.032 E87.4763
G0 F6000 X176.348 Y109.598
G1 F1200 X158.891 Y92.14 E88.29745
G0 F6000 X158.326 Y92.14
G1 F1200 X176.348 Y110.163 E89.14517
G0 F6000 X176.348 Y110.729
G1 F1200 X157.76 Y92.14 E90.01952
G0 F6000 X157.194 Y92.14
G1 F1200 X176.348 Y111.295 E90.92049
G0 F6000 X176.348 Y111.86
G1 F1200 X156.629 Y92.14 E91.84803
G0 F6000 X156.063 Y92.14
G1 F1200 X176.348 Y112.426 E92.8022
G0 F6000 X176.348 Y112.992
G1 F1200 X155.497 Y92.14 E93.78299
G0 F6000 X154.932 Y92.14
G1 F1200 X176.348 Y113.557 E94.79036
G0 F6000 X176.348 Y114.123
G1 F1200 X154.366 Y92.14 E95.82434
G0 F6000 X153.8 Y92.14
G1 F1200 X176.348 Y114.689 E96.88496
G0 F6000 X176.348 Y115.254
G1 F1200 X153.234 Y92.14 E97.97217
G0 F6000 X152.669 Y92.14
G1 F1200 X176.348 Y115.82 E99.08598
G0 F6000 X176.348 Y116.386
G1 F1200 X152.103 Y92.14 E100.22641
G0 F6000 X151.537 Y92.14
G1 F1200 X176.348 Y116.951 E101.39345
G0 F6000 X176.348 Y117.517
G1 F1200 X150.972 Y92.14 E102.58708
G0 F6000 X150.406 Y92.14
G1 F1200 X176.348 Y118.083 E103.80734
G0 F6000 X176.348 Y118.648
G1 F1200 X149.84 Y92.14 E105.05419
G0 F6000 X149.275 Y92.14
G1 F1200 X176.348 Y119.214 E106.32764
G0 F6000 X176.348 Y119.78
G1 F1200 X148.709 Y92.14 E107.62772
G0 F6000 X148.143 Y92.14
G1 F1200 X176.348 Y120.346 E108.95442
G0 F6000 X176.348 Y120.911
G1 F1200 X147.578 Y92.14 E110.3077
G0 F6000 X147.012 Y92.14
G1 F1200 X176.348 Y121.477 E111.6876
G0 F6000 X176.348 Y122.043
G1 F1200 X146.446 Y92.14 E113.09412
G0 F6000 X145.881 Y92.14
G1 F1200 X176.348 Y122.608 E114.52722
G0 F6000 X176.348 Y123.174
G1 F1200 X145.315 Y92.14 E115.98694
G0 F6000 X144.749 Y92.14
G1 F1200 X176.348 Y123.74 E117.47328
G0 F6000 X176.348 Y124.305
G1 F1200 X144.184 Y92.14 E118.9862
G0 F6000 X143.618 Y92.14
G1 F1200 X176.348 Y124.871 E120.52574
G0 F6000 X176.348 Y125.437
G1 F1200 X143.052 Y92.14 E122.09191
G0 F6000 X142.486 Y92.14
G1 F1200 X176.348 Y126.002 E123.68467
G0 F6000 X176.348 Y126.568
G1 F1200 X141.921 Y92.14 E125.30404
G0 F6000 X141.355 Y92.14
G1 F1200 X176.348 Y127.134 E126.95002
G0 F6000 X176.348 Y127.699
G1 F1200 X140.789 Y92.14 E128.62261
G0 F6000 X140.224 Y92.14
G1 F1200 X176.348 Y128.265 E130.3218
G0 F6000 X176.348 Y128.831
G1 F1200 X139.658 Y92.14 E132.0476
G0 F6000 X139.092 Y92.14
G1 F1200 X176.348 Y129.397 E133.80004
G0 F6000 X176.348 Y129.962
G1 F1200 X138.527 Y92.14 E135.57904
G0 F6000 X137.961 Y92.14
G1 F1200 X176.348 Y130.528 E137.38467
G0 F6000 X176.348 Y131.094
G1 F1200 X137.395 Y92.14 E139.21693
G0 F6000 X136.83 Y92.14
G1 F1200 X176.348 Y131.659 E141.07576
G0 F6000 X176.348 Y132.225
G1 F1200 X136.264 Y92.14 E142.96121
G0 F6000 X135.698 Y92.14
G1 F1200 X176.348 Y132.791 E144.87328
G0 F6000 X176.348 Y133.356
G1 F1200 X135.133 Y92.14 E146.81193
G0 F6000 X134.567 Y92.14
G1 F1200 X176.348 Y133.922 E148.77721
G0 F6000 X176.348 Y134.488
G1 F1200 X134.001 Y92.14 E150.7691
G0 F6000 X133.435 Y92.14
G1 F1200 X176.348 Y135.053 E152.7876
G0 F6000 X176.348 Y135.619
G1 F1200 X132.87 Y92.14 E154.8327
G0 F6000 X132.304 Y92.14
G1 F1200 X176.348 Y136.185 E156.90441
G0 F6000 X176.348 Y136.75
G1 F1200 X131.738 Y92.14 E159.00273
G0 F6000 X131.173 Y92.14
G1 F1200 X176.348 Y137.316 E161.12765
G0 F6000 X176.348 Y137.882
G1 F1200 X130.607 Y92.14 E163.27919
G0 F6000 X130.041 Y92.14
G1 F1200 X176.348 Y138.447 E165.45733
G0 F6000 X176.348 Y139.013
G1 F1200 X129.476 Y92.14 E167.66207
G0 F6000 X128.91 Y92.14
G1 F1200 X176.348 Y139.579 E169.89343
G0 F6000 X176.348 Y140.145
G1 F1200 X128.344 Y92.14 E172.15141
G0 F6000 X127.779 Y92.14
G1 F1200 X176.348 Y140.71 E174.43597
G0 F6000 X176.348 Y141.276
G1 F1200 X127.213 Y92.14 E176.74716
G0 F6000 X126.647 Y92.14
G1 F1200 X176.348 Y141.842 E179.08496
G0 F6000 X176.348 Y142.407
G1 F1200 X126.082 Y92.14 E181.44934
G0 F6000 X125.516 Y92.14
G1 F1200 X176.233 Y142.858 E183.83494
G0 F6000 X175.667 Y142.858
G1 F1200 X124.95 Y92.14 E186.22054
G0 F6000 X124.385 Y92.14
G1 F1200 X175.102 Y142.858 E188.60613
G0 F6000 X174.536 Y142.858
G1 F1200 X123.819 Y92.14 E190.99173
G0 F6000 X123.253 Y92.14
G1 F1200 X173.97 Y142.858 E193.37732
G0 F6000 X173.405 Y142.858
G1 F1200 X122.687 Y92.14 E195.76294
G0 F6000 X122.122 Y92.14
G1 F1200 X172.839 Y142.858 E198.14854
G0 F6000 X172.273 Y142.858
G1 F1200 X121.556 Y92.14 E200.53413
G0 F6000 X120.99 Y92.14
G1 F1200 X171.708 Y142.858 E202.91975
G0 F6000 X171.142 Y142.858
