;FLAVOR:Marlin
;TIME:1693
;Filament used: 1.1706m
;Layer height: 0.2
;MINX:46.5
;MINY:81.764
;MINZ:0.2
;MAXX:188.5
;MAXY:153.236
;MAXZ:3.2
;Generated with Cura_SteamEngine 4.7.1
M140 S60
M105
M190 S60
M104 S200
M105
M109 S200
M82 ;absolute extrusion mode
; Ender 3 Custom Start G-code
G92 E0 ; Reset Extruder
G28 ; Home all axes
G1 Z2.0 F3000 ; Move Z Axis up little to prevent scratching of Heat Bed
G1 X0.1 Y20 Z0.3 F5000.0 ; Move to start position
G1 X0.1 Y200.0 Z0.3 F1500.0 E15 ; Draw the first line
G1 X0.4 Y200.0 Z0.3 F5000.0 ; Move to side a little
G1 X0.4 Y20 Z0.3 F1500.0 E30 ; Draw the second line
G92 E0 ; Reset Extruder
G1 Z2.0 F3000 ; Move Z Axis up little to prevent scratching of Heat Bed
G1 X5 Y20 Z0.3 F5000.0 ; Move over to prevent blob squish
G92 E0
G92 E0
G1 F2700 E-5
;LAYER_COUNT:16
;LAYER:0
M107
G0 F6000 X51.912 Y83.303 Z0.2
;TYPE:SKIRT
G1 F2700 E0
G1 F1200 X52.739 Y82.861 E0.03119
G1 X53.601 Y82.491 E0.06239
G1 X54.491 Y82.195 E0.09358
G1 X55.403 Y81.977 E0.12477
G1 X56.33 Y81.836 E0.15596
G1 X57.201 Y81.777 E0.18499
G1 X57.522 Y81.768 E0.19567
G1 X57.83 Y81.764 E0.20592
G1 X176.793 Y81.764 E4.16265
G1 X176.951 Y81.765 E4.1679
G1 X177.649 Y81.775 E4.19112
G1 X178.585 Y81.829 E4.2223
G1 X179.513 Y81.961 E4.25348
G1 X180.427 Y82.173 E4.28468
G1 X181.319 Y82.462 E4.31587
G1 X182.184 Y82.825 E4.34707
G1 X183.014 Y83.261 E4.37825
G1 X183.805 Y83.766 E4.40947
G1 X184.549 Y84.337 E4.44066
G1 X185.242 Y84.969 E4.47186
G1 X185.879 Y85.657 E4.50304
G1 X186.454 Y86.398 E4.53424
G1 X186.965 Y87.184 E4.56542
G1 X187.407 Y88.012 E4.59664
G1 X187.776 Y88.874 E4.62782
G1 X188.071 Y89.764 E4.65901
G1 X188.289 Y90.676 E4.6902
G1 X188.429 Y91.604 E4.72141
G1 X188.487 Y92.465 E4.75011
G1 X188.496 Y92.785 E4.76076
G1 X188.5 Y93.094 E4.77104
G1 X188.499 Y141.636 E6.38555
G1 X188.49 Y142.363 E6.40973
G1 X188.439 Y143.3 E6.44094
G1 X188.307 Y144.228 E6.47212
G1 X188.098 Y145.142 E6.5033
G1 X187.811 Y146.035 E6.5345
G1 X187.449 Y146.901 E6.56572
G1 X187.015 Y147.732 E6.5969
G1 X186.511 Y148.523 E6.6281
G1 X185.942 Y149.268 E6.65928
G1 X185.311 Y149.963 E6.6905
G1 X184.624 Y150.601 E6.72168
G1 X183.885 Y151.178 E6.75287
G1 X183.099 Y151.69 E6.78407
G1 X182.273 Y152.133 E6.81524
G1 X181.411 Y152.505 E6.84647
G1 X180.522 Y152.801 E6.87763
G1 X179.61 Y153.021 E6.90883
G1 X178.683 Y153.162 E6.94002
G1 X177.799 Y153.223 E6.96949
G1 X177.478 Y153.232 E6.98017
G1 X177.17 Y153.236 E6.99042
G1 X58.207 Y153.236 E10.94714
G1 X57.367 Y153.226 E10.97508
G1 X56.431 Y153.174 E11.00626
G1 X55.502 Y153.042 E11.03747
G1 X54.588 Y152.832 E11.06866
G1 X53.695 Y152.545 E11.09986
G1 X52.83 Y152.182 E11.13106
G1 X51.999 Y151.748 E11.16224
G1 X51.208 Y151.244 E11.19344
G1 X50.463 Y150.674 E11.22464
G1 X49.769 Y150.043 E11.25584
G1 X49.132 Y149.356 E11.287
G1 X48.555 Y148.616 E11.31821
G1 X48.043 Y147.83 E11.34941
G1 X47.6 Y147.003 E11.38061
G1 X47.229 Y146.142 E11.41179
G1 X46.933 Y145.252 E11.44299
G1 X46.714 Y144.34 E11.47418
G1 X46.573 Y143.413 E11.50537
G1 X46.513 Y142.524 E11.53501
G1 X46.504 Y142.191 E11.54609
G1 X46.5 Y141.894 E11.55597
G1 X46.501 Y93.289 E13.17257
G1 X46.51 Y92.624 E13.19469
G1 X46.563 Y91.688 E13.22588
G1 X46.695 Y90.759 E13.25708
G1 X46.906 Y89.845 E13.28828
G1 X47.194 Y88.953 E13.31946
G1 X47.557 Y88.088 E13.35066
G1 X47.992 Y87.257 E13.38186
G1 X48.496 Y86.467 E13.41303
G1 X49.066 Y85.722 E13.44422
G1 X49.698 Y85.028 E13.47544
G1 X50.386 Y84.391 E13.50663
G1 X51.126 Y83.815 E13.53782
G1 X51.912 Y83.303 E13.56902
G0 F6000 X52.291 Y83.546
G1 F1200 X53.111 Y83.128 E13.59963
G1 X53.965 Y82.783 E13.63027
G1 X54.845 Y82.513 E13.66088
G1 X55.745 Y82.321 E13.69149
G1 X56.659 Y82.207 E13.72212
G1 X57.212 Y82.177 E13.74054
G1 X57.533 Y82.168 E13.75122
G1 X57.83 Y82.164 E13.7611
G1 X176.793 Y82.164 E17.71783
G1 X177.643 Y82.175 E17.7461
G1 X178.562 Y82.228 E17.77672
G1 X179.473 Y82.361 E17.80734
G1 X180.369 Y82.572 E17.83796
G1 X181.243 Y82.86 E17.86856
G1 X182.09 Y83.223 E17.89921
G1 X182.901 Y83.658 E17.92982
G1 X183.671 Y84.162 E17.96043
G1 X184.395 Y84.731 E17.99106
G1 X185.067 Y85.361 E18.0217
G1 X185.682 Y86.046 E18.05231
G1 X186.235 Y86.782 E18.08293
G1 X186.722 Y87.563 E18.11355
G1 X187.139 Y88.384 E18.14417
G1 X187.484 Y89.238 E18.17481
G1 X187.753 Y90.118 E18.20541
G1 X187.945 Y91.019 E18.23605
G1 X188.058 Y91.932 E18.26665
G1 X188.087 Y92.476 E18.28477
G1 X188.096 Y92.796 E18.29542
G1 X188.1 Y93.094 E18.30533
G1 X188.099 Y141.631 E19.91968
G1 X188.09 Y142.358 E19.94386
G1 X188.039 Y143.277 E19.97447
G1 X187.908 Y144.189 E20.00512
G1 X187.698 Y145.085 E20.03573
G1 X187.412 Y145.96 E20.06634
G1 X187.051 Y146.807 E20.09697
G1 X186.617 Y147.619 E20.12759
G1 X186.115 Y148.391 E20.15822
G1 X185.547 Y149.116 E20.18885
G1 X184.919 Y149.789 E20.21947
G1 X184.235 Y150.405 E20.25008
G1 X183.5 Y150.959 E20.28069
G1 X182.72 Y151.448 E20.31131
G1 X181.9 Y151.867 E20.34194
G1 X181.047 Y152.213 E20.37256
G1 X180.167 Y152.484 E20.40318
G1 X179.267 Y152.677 E20.4338
G1 X178.353 Y152.792 E20.46444
G1 X177.788 Y152.823 E20.48326
G1 X177.467 Y152.832 E20.49394
G1 X177.17 Y152.836 E20.50382
G1 X58.207 Y152.836 E24.46054
G1 X57.372 Y152.826 E24.48832
G1 X56.453 Y152.774 E24.51893
G1 X55.542 Y152.643 E24.54954
G1 X54.646 Y152.433 E24.58015
G1 X53.771 Y152.146 E24.61078
G1 X52.924 Y151.784 E24.64142
G1 X52.112 Y151.35 E24.67204
G1 X51.341 Y150.848 E24.70264
G1 X50.616 Y150.28 E24.73327
G1 X49.943 Y149.651 E24.76391
G1 X49.328 Y148.967 E24.7945
G1 X48.774 Y148.232 E24.82512
G1 X48.286 Y147.451 E24.85575
G1 X47.867 Y146.631 E24.88637
G1 X47.521 Y145.778 E24.91699
G1 X47.251 Y144.898 E24.94761
G1 X47.058 Y143.997 E24.97825
G1 X46.944 Y143.084 E25.00886
G1 X46.913 Y142.513 E25.02788
G1 X46.904 Y142.18 E25.03896
G1 X46.9 Y141.894 E25.04847
G1 X46.901 Y93.295 E26.66488
G1 X46.91 Y92.63 E26.687
G1 X46.962 Y91.71 E26.71765
G1 X47.094 Y90.799 E26.74826
G1 X47.305 Y89.903 E26.77888
G1 X47.592 Y89.028 E26.80951
G1 X47.955 Y88.182 E26.84013
G1 X48.389 Y87.37 E26.87075
G1 X48.892 Y86.599 E26.90137
G1 X49.461 Y85.875 E26.93199
G1 X50.089 Y85.203 E26.96259
G1 X50.774 Y84.587 E26.99323
G1 X51.51 Y84.034 E27.02385
G1 X52.291 Y83.546 E27.05448
G0 F6000 X52.669 Y83.795
G1 F1200 X53.482 Y83.402 E27.08451
G1 X54.327 Y83.082 E27.11456
G1 X55.196 Y82.839 E27.14457
G1 X56.084 Y82.673 E27.17462
G1 X57.223 Y82.577 E27.21264
G1 X57.544 Y82.568 E27.22332
G1 X57.83 Y82.564 E27.23283
G1 X176.793 Y82.564 E31.18956
G1 X177.637 Y82.575 E31.21763
G1 X178.539 Y82.628 E31.24768
G1 X179.432 Y82.76 E31.27771
G1 X180.31 Y82.971 E31.30774
G1 X181.166 Y83.259 E31.33778
G1 X181.993 Y83.621 E31.36781
G1 X182.785 Y84.056 E31.39786
G1 X183.536 Y84.558 E31.42791
G1 X184.239 Y85.125 E31.45794
G1 X184.889 Y85.752 E31.48798
G1 X185.481 Y86.434 E31.51802
G1 X186.011 Y87.165 E31.54805
G1 X186.473 Y87.941 E31.57809
G1 X186.866 Y88.754 E31.60812
G1 X187.184 Y89.599 E31.63815
G1 X187.427 Y90.469 E31.6682
G1 X187.592 Y91.357 E31.69824
G1 X187.687 Y92.487 E31.73595
G1 X187.696 Y92.807 E31.7466
G1 X187.7 Y93.094 E31.75615
G1 X187.699 Y141.626 E33.37033
G1 X187.69 Y142.353 E33.39451
G1 X187.639 Y143.255 E33.42456
G1 X187.508 Y144.149 E33.45461
G1 X187.299 Y145.027 E33.48463
G1 X187.013 Y145.884 E33.51468
G1 X186.652 Y146.712 E33.54472
G1 X186.22 Y147.504 E33.57473
G1 X185.719 Y148.256 E33.60478
G1 X185.153 Y148.96 E33.63483
G1 X184.528 Y149.611 E33.66484
G1 X183.847 Y150.205 E33.6949
G1 X183.116 Y150.736 E33.72495
G1 X182.342 Y151.2 E33.75496
G1 X181.529 Y151.594 E33.78501
G1 X180.685 Y151.914 E33.81503
G1 X179.815 Y152.159 E33.84509
G1 X178.928 Y152.325 E33.87511
G1 X177.777 Y152.423 E33.91353
G1 X177.456 Y152.432 E33.92421
G1 X177.17 Y152.436 E33.93372
G1 X58.207 Y152.436 E37.89045
G1 X57.377 Y152.426 E37.91806
G1 X56.476 Y152.375 E37.94807
G1 X55.582 Y152.243 E37.97813
G1 X54.704 Y152.034 E38.00815
G1 X53.847 Y151.747 E38.03821
G1 X53.02 Y151.386 E38.06822
G1 X52.227 Y150.953 E38.09827
G1 X51.476 Y150.452 E38.1283
G1 X50.772 Y149.886 E38.15834
G1 X50.121 Y149.26 E38.18838
G1 X49.528 Y148.579 E38.21841
G1 X48.998 Y147.848 E38.24844
G1 X48.534 Y147.073 E38.27849
G1 X48.14 Y146.26 E38.30854
G1 X47.82 Y145.416 E38.33856
G1 X47.576 Y144.546 E38.36861
G1 X47.41 Y143.658 E38.39866
G1 X47.313 Y142.503 E38.43721
G1 X47.304 Y142.17 E38.44829
G1 X47.3 Y141.894 E38.45747
G1 X47.301 Y93.3 E40.07371
G1 X47.31 Y92.635 E40.09583
G1 X47.362 Y91.733 E40.12588
G1 X47.494 Y90.84 E40.15591
G1 X47.704 Y89.962 E40.18593
G1 X47.991 Y89.105 E40.21599
G1 X48.353 Y88.278 E40.24602
G1 X48.786 Y87.486 E40.27604
G1 X49.288 Y86.735 E40.30608
G1 X49.855 Y86.031 E40.33615
G1 X50.481 Y85.381 E40.36616
G1 X51.162 Y84.788 E40.3962
G1 X51.894 Y84.258 E40.42626
G1 X52.669 Y83.795 E40.45628
G1 F2700 E35.45628
;MESH:braille.PNG
G0 F6000 X58.31 Y92.099
G0 X58.31 Y93.574
G0 X58.282 Y141.454
G0 X176.9 Y141.636
;TYPE:WALL-INNER
G1 F2700 E40.45628
G1 F1200 X58.1 Y141.636 E44.40759
G1 X58.1 Y93.364 E46.01312
G1 X176.9 Y93.364 E49.96442
G1 X176.9 Y141.636 E51.56996
G0 F6000 X177.3 Y142.036
;TYPE:WALL-OUTER
G1 F1200 X57.7 Y142.036 E55.54787
G1 X57.7 Y92.964 E57.18001
G1 X177.3 Y92.964 E61.15792
G1 X177.3 Y142.036 E62.79006
G0 F6000 X177.03 Y141.766
G0 X176.79 Y141.246
G0 X176.51 Y141.246
;TYPE:SKIN
G1 F1200 X58.49 Y141.246 E66.71543
G1 X58.49 Y93.754 E68.29502
G1 X176.51 Y93.754 E72.22038
G1 X176.51 Y141.246 E73.79997
G1 F2700 E68.79997
G0 F6000 X176.79 Y141.246
G0 X176.79 Y94.325
G0 X176.349 Y94.325
G1 F2700 E73.79997
G1 F1200 X175.938 Y93.913 E73.81932
G0 F6000 X175.372 Y93.913
G1 F1200 X176.349 Y94.89 E73.86528
G0 F6000 X176.349 Y95.456
G1 F1200 X174.806 Y93.913 E73.93786
G0 F6000 X174.241 Y93.913
G1 F1200 X176.349 Y96.022 E74.03703
G0 F6000 X176.349 Y96.587
G1 F1200 X173.675 Y93.913 E74.16281
G0 F6000 X173.109 Y93.913
G1 F1200 X176.349 Y97.153 E74.31521
G0 F6000 X176.349 Y97.719
G1 F1200 X172.543 Y93.913 E74.49423
G0 F6000 X171.978 Y93.913
G1 F1200 X176.349 Y98.285 E74.69985
G0 F6000 X176.349 Y98.85
G1 F1200 X171.412 Y93.913 E74.93208
G0 F6000 X170.846 Y93.913
G1 F1200 X176.349 Y99.416 E75.19092
G0 F6000 X176.349 Y99.982
G1 F1200 X170.281 Y93.913 E75.47636
G0 F6000 X169.715 Y93.913
G1 F1200 X176.349 Y100.547 E75.78841
G0 F6000 X176.349 Y101.113
G1 F1200 X169.149 Y93.913 E76.12707
G0 F6000 X168.584 Y93.913
G1 F1200 X176.349 Y101.679 E76.49234
G0 F6000 X176.349 Y102.244
G1 F1200 X168.018 Y93.913 E76.8842
G0 F6000 X167.452 Y93.913
G1 F1200 X176.349 Y102.81 E77.30269
G0 F6000 X176.349 Y103.376
G1 F1200 X166.887 Y93.913 E77.74778
G0 F6000 X166.321 Y93.913
G1 F1200 X176.349 Y103.941 E78.21946
G0 F6000 X176.349 Y104.507
G1 F1200 X165.755 Y93.913 E78.71777
G0 F6000 X165.19 Y93.913
G1 F1200 X176.349 Y105.073 E79.24268
G0 F6000 X176.349 Y105.638
G1 F1200 X164.624 Y93.913 E79.79419
G0 F6000 X164.058 Y93.913
G1 F1200 X176.349 Y106.204 E80.37232
G0 F6000 X176.349 Y106.77
G1 F1200 X163.492 Y93.913 E80.97707
G0 F6000 X162.927 Y93.913
G1 F1200 X176.349 Y107.335 E81.6084
G0 F6000 X176.349 Y107.901
G1 F1200 X162.361 Y93.913 E82.26636
G0 F6000 X161.795 Y93.913
G1 F1200 X176.349 Y108.467 E82.95093
G0 F6000 X176.349 Y109.033
G1 F1200 X161.23 Y93.913 E83.66211
G0 F6000 X160.664 Y93.913
G1 F1200 X176.349 Y109.598 E84.39988
G0 F6000 X176.349 Y110.164
G1 F1200 X160.098 Y93.913 E85.16428
G0 F6000 X159.533 Y93.913
G1 F1200 X176.349 Y110.73 E85.95528
G0 F6000 X176.349 Y111.295
G1 F1200 X158.967 Y93.913 E86.77287
G0 F6000 X158.401 Y93.913
G1 F1200 X176.349 Y111.861 E87.61709
G0 F6000 X176.349 Y112.427
G1 F1200 X157.836 Y93.913 E88.48791
G0 F6000 X157.27 Y93.913
G1 F1200 X176.349 Y112.992 E89.38533
G0 F6000 X176.349 Y113.558
G1 F1200 X156.704 Y93.913 E90.30937
G0 F6000 X156.139 Y93.913
G1 F1200 X176.349 Y114.124 E91.26001
G0 F6000 X176.349 Y114.689
G1 F1200 X155.573 Y93.913 E92.23725
G0 F6000 X155.007 Y93.913
G1 F1200 X176.349 Y115.255 E93.24111
G0 F6000 X176.349 Y115.821
G1 F1200 X154.442 Y93.913 E94.27157
G0 F6000 X153.876 Y93.913
G1 F1200 X176.349 Y116.386 E95.32863
G0 F6000 X176.349 Y116.952
G1 F1200 X153.31 Y93.913 E96.41232
G0 F6000 X152.744 Y93.913
G1 F1200 X176.349 Y117.518 E97.52262
G0 F6000 X176.349 Y118.084
G1 F1200 X152.179 Y93.913 E98.65953
G0 F6000 X151.613 Y93.913
G1 F1200 X176.349 Y118.649 E99.82303
G0 F6000 X176.349 Y119.215
G1 F1200 X151.047 Y93.913 E101.01316
G0 F6000 X150.482 Y93.913
G1 F1200 X176.349 Y119.781 E102.22989
G0 F6000 X176.349 Y120.346
G1 F1200 X149.916 Y93.913 E103.47322
G0 F6000 X149.35 Y93.913
G1 F1200 X176.349 Y120.912 E104.74317
G0 F6000 X176.349 Y121.478
G1 F1200 X148.785 Y93.913 E106.03972
G0 F6000 X148.219 Y93.913
G1 F1200 X176.349 Y122.043 E107.36287
G0 F6000 X176.349 Y122.609
G1 F1200 X147.653 Y93.913 E108.71264
G0 F6000 X147.088 Y93.913
G1 F1200 X176.349 Y123.175 E110.08901
G0 F6000 X176.349 Y123.74
G1 F1200 X146.522 Y93.913 E111.49198
G0 F6000 X145.956 Y93.913
G1 F1200 X176.349 Y124.306 E112.92157
G0 F6000 X176.349 Y124.872
G1 F1200 X145.391 Y93.913 E114.37777
G0 F6000 X144.825 Y93.913
G1 F1200 X176.349 Y125.437 E115.86056
G0 F6000 X176.349 Y126.003
G1 F1200 X144.259 Y93.913 E117.36997
G0 F6000 X143.693 Y93.913
G1 F1200 X176.349 Y126.569 E118.90601
G0 F6000 X176.349 Y127.134
G1 F1200 X143.128 Y93.913 E120.46863
G0 F6000 X142.562 Y93.913
G1 F1200 X176.349 Y127.7 E122.05786
G0 F6000 X176.349 Y128.266
G1 F1200 X141.996 Y93.913 E123.67372
G0 F6000 X141.431 Y93.913
G1 F1200 X176.349 Y128.832 E125.31618
G0 F6000 X176.349 Y129.397
G1 F1200 X140.865 Y93.913 E126.98524
G0 F6000 X140.299 Y93.913
G1 F1200 X176.349 Y129.963 E128.68092
G0 F6000 X176.349 Y130.529
G1 F1200 X139.734 Y93.913 E130.4032
G0 F6000 X139.168 Y93.913
G1 F1200 X176.349 Y131.094 E132.15208
G0 F6000 X176.349 Y131.66
G1 F1200 X138.602 Y93.913 E133.92759
G0 F6000 X138.037 Y93.913
G1 F1200 X176.349 Y132.226 E135.72969
G0 F6000 X176.349 Y132.791
G1 F1200 X137.471 Y93.913 E137.55839
G0 F6000 X136.905 Y93.913
G1 F1200 X176.349 Y133.357 E139.41372
G0 F6000 X176.349 Y133.923
G1 F1200 X136.34 Y93.913 E141.29564
G0 F6000 X135.774 Y93.913
G1 F1200 X176.349 Y134.488 E143.20416
G0 F6000 X176.349 Y135.054
G1 F1200 X135.208 Y93.913 E145.13931
G0 F6000 X134.643 Y93.913
G1 F1200 X176.349 Y135.62 E147.10106
G0 F6000 X176.349 Y136.185
G1 F1200 X134.077 Y93.913 E149.0894
G0 F6000 X133.511 Y93.913
G1 F1200 X176.349 Y136.751 E151.10437
G0 F6000 X176.349 Y137.317
G1 F1200 X132.945 Y93.913 E153.14596
G0 F6000 X132.38 Y93.913
G1 F1200 X176.349 Y137.882 E155.21413
G0 F6000 X176.349 Y138.448
G1 F1200 X131.814 Y93.913 E157.30892
G0 F6000 X131.248 Y93.913
G1 F1200 X176.349 Y139.014 E159.43033
G0 F6000 X176.349 Y139.58
G1 F1200 X130.683 Y93.913 E161.57834
G0 F6000 X130.117 Y93.913
G1 F1200 X176.349 Y140.145 E163.75295
G0 F6000 X176.349 Y140.711
G1 F1200 X129.551 Y93.913 E165.95419
G0 F6000 X128.986 Y93.913
G1 F1200 X176.157 Y141.085 E168.17299
G0 F6000 X175.592 Y141.085
G1 F1200 X128.42 Y93.913 E170.39182
G0 F6000 X127.854 Y93.913
G1 F1200 X175.026 Y141.085 E172.61064
G0 F6000 X174.46 Y141.085
G1 F1200 X127.289 Y93.913 E174.82945
G0 F6000 X126.723 Y93.913
G1 F1200 X173.895 Y141.085 E177.04827
G0 F6000 X173.329 Y141.085
G1 F1200 X126.157 Y93.913 E179.2671
G0 F6000 X125.592 Y93.913
G1 F1200 X172.763 Y141.085 E181.4859
G0 F6000 X172.198 Y141.085
G1 F1200 X125.026 Y93.913 E183.70473
G0 F6000 X124.46 Y93.913
G1 F1200 X171.632 Y141.085 E185.92355
G0 F6000 X171.066 Y141.085
G1 F1200 X123.895 Y93.913 E188.14236
G0 F6000 X123.329 Y93.913
G1 F1200 X170.501 Y141.085 E190.36118
G0 F6000 X169.935 Y141.085
G1 F1200 X122.763 Y93.913 E192.58001
G0 F6000 X122.197 Y93.913
G1 F1200 X169.369 Y141.085 E194.79884
G0 F6000 X168.804 Y141.085
G1 F1200 X121.632 Y93.913 E197.01766
